; generated by Slic3r 1.2.9 on 2015-11-06 at 23:39:04

; external perimeters extrusion width = 0.68mm
; perimeters extrusion width = 0.68mm
; infill extrusion width = 1.02mm
; solid infill extrusion width = 0.85mm
; top infill extrusion width = 0.65mm

M190 S80 ; set bed temperature
M104 S235 ; set temperature
G28 ; home all axes
G1 Z5 F5000 ; lift nozzle

M109 S235 ; wait for temperature to be reached
G21 ; set units to millimeters
G90 ; use absolute coordinates
M82 ; use absolute distances for extrusion
G92 E0
G1 Z0.200 F7800.000
G1 E-6.50000 F6600.00000
G92 E0
G1 Z0.250 F7800.000
G1 X22.588 Y0.000 F7800.000
G1 Z0.200 F7800.000
G1 E6.50000 F6600.00000
G1 X22.588 Y15.443 E7.39833 F1800.000
G1 X22.556 Y16.108 E7.43703
G1 X22.480 Y16.684 E7.47087
G1 X22.354 Y17.252 E7.50467
G1 X22.159 Y17.883 E7.54311
G1 X21.899 Y18.500 E7.58205
G1 X21.630 Y19.016 E7.61592
G1 X21.319 Y19.506 E7.64969
G1 X20.915 Y20.037 E7.68848
G1 X20.524 Y20.465 E7.72220
G1 X20.037 Y20.915 E7.76077
G1 X19.506 Y21.319 E7.79957
G1 X19.016 Y21.630 E7.83334
G1 X18.500 Y21.899 E7.86720
G1 X17.888 Y22.157 E7.90586
G1 X17.332 Y22.332 E7.93972
G1 X16.684 Y22.480 E7.97838
G1 X16.108 Y22.556 E8.01222
G1 X15.443 Y22.588 E8.05092
G1 X-15.443 Y22.588 E9.84759
G1 X-16.107 Y22.556 E9.88627
G1 X-16.686 Y22.479 E9.92021
G1 X-17.252 Y22.354 E9.95392
G1 X-17.883 Y22.159 E9.99233
G1 X-18.424 Y21.935 E10.02644
G1 X-19.017 Y21.630 E10.06520
G1 X-19.506 Y21.319 E10.09894
G1 X-20.034 Y20.918 E10.13748
G1 X-20.524 Y20.465 E10.17631
G1 X-20.918 Y20.034 E10.21027
G1 X-21.271 Y19.575 E10.24396
G1 X-21.632 Y19.013 E10.28280
G1 X-21.935 Y18.424 E10.32132
G1 X-22.156 Y17.889 E10.35501
G1 X-22.332 Y17.332 E10.38898
G1 X-22.479 Y16.687 E10.42748
G1 X-22.556 Y16.107 E10.46149
G1 X-22.588 Y15.443 E10.50017
G1 X-22.583 Y-15.719 E12.31289
G1 X-22.556 Y-16.107 E12.33553
G1 X-22.480 Y-16.682 E12.36925
G1 X-22.354 Y-17.252 E12.40318
G1 X-22.158 Y-17.884 E12.44169
G1 X-21.935 Y-18.424 E12.47569
G1 X-21.632 Y-19.014 E12.51424
G1 X-21.319 Y-19.506 E12.54819
G1 X-20.917 Y-20.035 E12.58682
G1 X-20.524 Y-20.465 E12.62071
G1 X-20.039 Y-20.914 E12.65917
G1 X-19.575 Y-21.271 E12.69322
G1 X-19.018 Y-21.630 E12.73175
G1 X-18.424 Y-21.935 E12.77058
G1 X-17.884 Y-22.158 E12.80458
G1 X-17.252 Y-22.354 E12.84310
G1 X-16.682 Y-22.480 E12.87702
G1 X-16.107 Y-22.556 E12.91074
G1 X-15.732 Y-22.582 E12.93262
G1 X15.719 Y-22.583 E14.76216
G1 X16.107 Y-22.556 E14.78479 F1800.000
G1 X16.687 Y-22.479 E14.81880
G1 X17.332 Y-22.332 E14.85730
G1 X17.889 Y-22.156 E14.89127
G1 X18.424 Y-21.935 E14.92496
G1 X19.013 Y-21.632 E14.96347
G1 X19.506 Y-21.319 E14.99746
G1 X20.034 Y-20.918 E15.03601
G1 X20.465 Y-20.524 E15.06997
G1 X20.915 Y-20.038 E15.10852
G1 X21.319 Y-19.506 E15.14734
G1 X21.633 Y-19.013 E15.18137
G1 X21.935 Y-18.424 E15.21984
G1 X22.157 Y-17.887 E15.25366
G1 X22.332 Y-17.332 E15.28749
G1 X22.480 Y-16.681 E15.32635
G1 X22.563 Y-16.024 E15.36487
G1 X22.588 Y-15.443 E15.39869
G1 X22.588 Y-0.075 E16.29267
G1 E9.79267 F6600.00000
G92 E0
G1 Z0.250 F7800.000
G1 X14.767 Y-0.075 F7800.000
G1 Z0.200 F7800.000
G1 E6.50000 F6600.00000
G1 X14.767 Y7.554 E6.94376 F1800.000
G1 X13.187 Y7.554 E7.03568
G1 X12.999 Y7.587 E7.04677
G1 X12.990 Y8.202 E7.08260
G1 X13.019 Y8.368 E7.09237
G1 X13.187 Y8.398 E7.10230
G1 X14.767 Y8.398 E7.19423
G1 X14.767 Y14.767 E7.56475
G1 X8.398 Y14.767 E7.93527
G1 X8.398 Y13.187 E8.02719
G1 X8.364 Y12.999 E8.03829
G1 X7.749 Y12.990 E8.07411
G1 X7.583 Y13.019 E8.08388
G1 X7.554 Y13.187 E8.09381
G1 X7.554 Y14.767 E8.18574
G1 X-7.554 Y14.767 E9.06453
G1 X-7.554 Y13.186 E9.15648
G1 X-7.586 Y12.998 E9.16763
G1 X-8.202 Y12.990 E9.20345
G1 X-8.368 Y13.019 E9.21325
G1 X-8.398 Y13.187 E9.22318
G1 X-8.398 Y14.767 E9.31510
G1 X-14.767 Y14.767 E9.68563
G1 X-14.767 Y8.398 E10.05615
G1 X-13.187 Y8.398 E10.14807
G1 X-13.019 Y8.368 E10.15800
G1 X-12.989 Y8.200 E10.16793
G1 X-12.989 Y7.751 E10.19402
G1 X-13.019 Y7.583 E10.20395
G1 X-13.187 Y7.554 E10.21388
G1 X-14.767 Y7.554 E10.30580
G1 X-14.767 Y-7.554 E11.18459
G1 X-13.187 Y-7.554 E11.27652
G1 X-12.998 Y-7.587 E11.28770
G1 X-12.990 Y-8.202 E11.32348
G1 X-13.019 Y-8.368 E11.33328
G1 X-13.187 Y-8.398 E11.34321
G1 X-14.767 Y-8.398 E11.43514
G1 X-14.767 Y-14.767 E11.80566 F1800.000
G1 X-8.398 Y-14.767 E12.17618
G1 X-8.398 Y-13.186 E12.26813
G1 X-8.365 Y-12.998 E12.27928
G1 X-7.589 Y-12.988 E12.32443
G1 X-7.554 Y-13.187 E12.33621
G1 X-7.554 Y-14.767 E12.42814
G1 X7.554 Y-14.767 E13.30693
G1 X7.554 Y-13.187 E13.39885
G1 X7.587 Y-12.998 E13.41004
G1 X8.202 Y-12.990 E13.44582
G1 X8.368 Y-13.019 E13.45562
G1 X8.398 Y-13.187 E13.46555
G1 X8.398 Y-14.767 E13.55747
G1 X14.767 Y-14.767 E13.92799
G1 X14.767 Y-8.398 E14.29852
G1 X13.187 Y-8.398 E14.39044
G1 X12.999 Y-8.364 E14.40153
G1 X12.990 Y-7.749 E14.43735
G1 X13.019 Y-7.583 E14.44713
G1 X13.187 Y-7.554 E14.45706
G1 X14.767 Y-7.554 E14.54898
G1 X14.767 Y-0.150 E14.97965
G1 X15.200 Y0.175 F7800.000
G1 X15.611 Y-7.530 F7800.000
G1 X15.611 Y15.413 E16.31425 F1800.000
G1 X15.581 Y15.581 E16.32419
G1 X15.413 Y15.611 E16.33412
G1 X-15.413 Y15.611 E18.12727
G1 X-15.581 Y15.581 E18.13721
G1 X-15.611 Y15.413 E18.14714
G1 X-15.611 Y-15.413 E19.94029
G1 X-15.581 Y-15.581 E19.95023
G1 X-15.413 Y-15.611 E19.96016
G1 X15.414 Y-15.611 E21.75335
G1 X15.581 Y-15.581 E21.76325 F1800.000
G1 X15.611 Y-15.413 E21.77318
G1 X15.611 Y-7.605 E22.22736
G1 X15.178 Y-7.280 F7800.000
G1 E15.72736 F6600.00000
G92 E0
G1 Z0.250 F7800.000
G1 X-5.837 Y-0.004 F7800.000
G1 Z0.200 F7800.000
G1 E6.50000 F6600.00000
G1 X-5.828 Y-0.384 E6.52214 F1800.000
G1 X-5.741 Y-1.059 E6.56174
G1 X-5.591 Y-1.677 E6.59874
G1 X-5.459 Y-2.067 E6.62267
G1 X-5.207 Y-2.640 E6.65908
G1 X-4.858 Y-3.236 E6.69928
G1 X-4.631 Y-3.560 E6.72226
G1 X-4.171 Y-4.084 E6.76282
G1 X-3.702 Y-4.513 E6.79983
G1 X-3.375 Y-4.764 E6.82376
G1 X-2.799 Y-5.126 E6.86337
G1 X-2.185 Y-5.415 E6.90282
G1 X-1.837 Y-5.540 E6.92432
G1 X-1.180 Y-5.716 E6.96391
G1 X-0.559 Y-5.814 E7.00047
G1 X0.085 Y-5.837 E7.03796
G1 X0.711 Y-5.797 E7.07448
G1 X1.339 Y-5.682 E7.11161
G1 X1.951 Y-5.502 E7.14872
G1 X2.502 Y-5.277 E7.18334
G1 X3.106 Y-4.948 E7.22332
G1 X3.367 Y-4.768 E7.24175
G1 X3.866 Y-4.378 E7.27864
G1 X4.319 Y-3.928 E7.31577
G1 X4.726 Y-3.428 E7.35324
G1 X4.907 Y-3.168 E7.37167
G1 X5.218 Y-2.616 E7.40856
G1 X5.472 Y-2.031 E7.44567
G1 X5.667 Y-1.417 E7.48314
G1 X5.731 Y-1.106 E7.50157
G1 X5.818 Y-0.478 E7.53846
G1 X5.838 Y0.160 E7.57558
G1 X5.783 Y0.795 E7.61270
G1 X5.662 Y1.418 E7.64958
G1 X5.581 Y1.724 E7.66802
G1 X5.353 Y2.327 E7.70549
G1 X5.068 Y2.897 E7.74260
G1 X4.726 Y3.431 E7.77949
G1 X4.531 Y3.681 E7.79792
G1 X4.100 Y4.160 E7.83540
G1 X3.619 Y4.580 E7.87252
G1 X3.101 Y4.945 E7.90940
G1 X2.831 Y5.110 E7.92783
G1 X2.249 Y5.387 E7.96531
G1 X1.648 Y5.600 E8.00241
G1 X1.027 Y5.749 E8.03953
G1 X0.393 Y5.824 E8.07666
G1 X-0.164 Y5.838 E8.10911
G1 X-0.876 Y5.776 E8.15067
G1 X-1.187 Y5.715 E8.16910
G1 X-1.801 Y5.556 E8.20599
G1 X-2.396 Y5.325 E8.24312
G1 X-2.962 Y5.031 E8.28024
G1 X-3.429 Y4.726 E8.31268
G1 X-3.965 Y4.289 E8.35291
G1 X-4.212 Y4.041 E8.37326
G1 X-4.625 Y3.560 E8.41014
G1 X-4.990 Y3.036 E8.44726
G1 X-5.292 Y2.467 E8.48474
G1 X-5.417 Y2.176 E8.50317
G1 X-5.624 Y1.577 E8.54006
G1 X-5.759 Y0.953 E8.57718
G1 X-5.828 Y0.319 E8.61429
G1 X-5.837 Y-0.004 E8.63305
M104 S225 ; set temperature
G1 Z0.400 F7800.000
G1 E2.13305 F6600.00000
G92 E0
G1 Z0.450 F7800.000
G1 X-14.767 Y-0.004 F7800.000
G1 Z0.400 F7800.000
G1 E6.50000 F6600.00000
G1 X-14.767 Y-7.554 E6.93919 F1500.000
G1 X-13.187 Y-7.554 E7.03111
G1 X-12.998 Y-7.587 E7.04230
G1 X-12.990 Y-8.202 E7.07808
G1 X-13.019 Y-8.368 E7.08788
G1 X-13.187 Y-8.398 E7.09781
G1 X-14.767 Y-8.398 E7.18974
G1 X-14.767 Y-14.767 E7.56026 F1500.000
G1 X-8.398 Y-14.767 E7.93078
G1 X-8.398 Y-13.185 E8.02280
G1 X-8.366 Y-12.998 E8.03387
G1 X-7.749 Y-12.990 E8.06978
G1 X-7.583 Y-13.019 E8.07958
G1 X-7.554 Y-13.187 E8.08951
G1 X-7.554 Y-14.767 E8.18143
G1 X7.554 Y-14.767 E9.06022
G1 X7.554 Y-13.187 E9.15214
G1 X7.587 Y-12.998 E9.16333
G1 X8.202 Y-12.990 E9.19911
G1 X8.368 Y-13.019 E9.20891
G1 X8.398 Y-13.187 E9.21884
G1 X8.398 Y-14.767 E9.31076
G1 X14.767 Y-14.767 E9.68128
G1 X14.767 Y-8.398 E10.05181
G1 X13.185 Y-8.398 E10.14383
G1 X13.002 Y-8.367 E10.15462
G1 X12.990 Y-7.748 E10.19065
G1 X13.019 Y-7.583 E10.20038
G1 X13.187 Y-7.554 E10.21031
G1 X14.767 Y-7.554 E10.30223
G1 X14.767 Y7.554 E11.18102
G1 X13.187 Y7.554 E11.27294
G1 X13.019 Y7.583 E11.28287
G1 X12.989 Y7.751 E11.29280
G1 X12.989 Y8.200 E11.31889
G1 X13.019 Y8.368 E11.32882
G1 X13.187 Y8.398 E11.33875
G1 X14.767 Y8.398 E11.43067
G1 X14.767 Y14.767 E11.80120
G1 X8.398 Y14.767 E12.17172
G1 X8.398 Y13.187 E12.26364
G1 X8.368 Y13.019 E12.27357
G1 X8.200 Y12.989 E12.28350
G1 X7.751 Y12.989 E12.30959
G1 X7.583 Y13.019 E12.31952
G1 X7.554 Y13.187 E12.32945
G1 X7.554 Y14.767 E12.42137
G1 X-7.554 Y14.767 E13.30016
G1 X-7.554 Y13.187 E13.39209
G1 X-7.587 Y12.998 E13.40327
G1 X-8.202 Y12.990 E13.43905
G1 X-8.368 Y13.019 E13.44885
G1 X-8.398 Y13.187 E13.45878
G1 X-8.398 Y14.767 E13.55071
G1 X-14.767 Y14.767 E13.92123
G1 X-14.767 Y8.398 E14.29175
G1 X-13.187 Y8.398 E14.38367
G1 X-12.998 Y8.364 E14.39486
G1 X-12.990 Y7.749 E14.43064
G1 X-13.019 Y7.583 E14.44044
G1 X-13.187 Y7.554 E14.45037
G1 X-14.767 Y7.554 E14.54229
G1 X-14.767 Y0.071 E14.97753
G1 X-15.200 Y-0.254 F7800.000
G1 E8.47753 F6600.00000
G92 E0
G1 Z0.450 F7800.000
G1 X2.223 Y-15.611 F7800.000
G1 Z0.400 F7800.000
G1 E6.50000 F6600.00000
G1 X15.414 Y-15.611 E7.26736 F1500.000
G1 X15.580 Y-15.580 E7.27718 F1500.000
G1 X15.611 Y-15.412 E7.28712
G1 X15.611 Y15.412 E9.08016
G1 X15.580 Y15.580 E9.09010
G1 X15.412 Y15.611 E9.10005
G1 X-15.412 Y15.611 E10.89308
G1 X-15.580 Y15.580 E10.90303
G1 X-15.611 Y15.412 E10.91297
G1 X-15.611 Y-15.412 E12.70601
G1 X-15.580 Y-15.580 E12.71595
G1 X-15.412 Y-15.611 E12.72589
G1 X2.148 Y-15.611 E13.74733
G1 X2.473 Y-15.178 F7800.000
G1 E7.24733 F6600.00000
G92 E0
G1 Z0.450 F7800.000
G1 X-5.837 Y-0.016 F7800.000
G1 Z0.400 F7800.000
G1 E6.50000 F6600.00000
G1 X-5.826 Y-0.403 E6.52257 F1500.000
G1 X-5.741 Y-1.057 E6.56091
G1 X-5.592 Y-1.676 E6.59797
G1 X-5.453 Y-2.083 E6.62299
G1 X-5.208 Y-2.638 E6.65826
G1 X-4.860 Y-3.234 E6.69838
G1 X-4.611 Y-3.585 E6.72343
G1 X-4.175 Y-4.079 E6.76174
G1 X-3.706 Y-4.510 E6.79880
G1 X-3.364 Y-4.771 E6.82384
G1 X-2.806 Y-5.122 E6.86218
G1 X-2.192 Y-5.412 E6.90166
G1 X-1.826 Y-5.544 E6.92428
G1 X-1.190 Y-5.715 E6.96259
G1 X-0.549 Y-5.816 E7.00034
G1 X0.095 Y-5.836 E7.03786
G1 X0.702 Y-5.796 E7.07321
G1 X1.332 Y-5.686 E7.11040
G1 X1.944 Y-5.504 E7.14756
G1 X2.533 Y-5.259 E7.18470
G1 X3.099 Y-4.951 E7.22218
G1 X3.379 Y-4.760 E7.24187
G1 X3.860 Y-4.379 E7.27757
G1 X4.318 Y-3.933 E7.31475
G1 X4.723 Y-3.432 E7.35222
G1 X4.915 Y-3.153 E7.37192
G1 X5.220 Y-2.620 E7.40763
G1 X5.472 Y-2.033 E7.44481
G1 X5.591 Y-1.677 E7.46664
G1 X5.739 Y-1.088 E7.50197
G1 X5.818 Y-0.479 E7.53769
G1 X5.838 Y0.160 E7.57487
G1 X5.783 Y0.797 E7.61204
G1 X5.667 Y1.399 E7.64775
G1 X5.580 Y1.727 E7.66745
G1 X5.352 Y2.329 E7.70492
G1 X5.066 Y2.900 E7.74209
G1 X4.736 Y3.418 E7.77779
G1 X4.528 Y3.685 E7.79749
G1 X4.095 Y4.162 E7.83496
G1 X3.617 Y4.586 E7.87215
G1 X3.113 Y4.938 E7.90785
G1 X2.824 Y5.114 E7.92755
G1 X2.193 Y5.413 E7.96820
G1 X1.640 Y5.603 E8.00219
G1 X1.018 Y5.748 E8.03934
G1 X0.384 Y5.828 E8.07653
G1 X-0.224 Y5.833 E8.11189
G1 X-0.559 Y5.810 E8.13143
G1 X-1.200 Y5.717 E8.16909
G1 X-1.792 Y5.555 E8.20479
G1 X-2.389 Y5.327 E8.24197
G1 X-2.958 Y5.036 E8.27913
G1 X-3.488 Y4.680 E8.31628
G1 X-3.983 Y4.268 E8.35375
G1 X-4.226 Y4.032 E8.37344
G1 X-4.623 Y3.564 E8.40915
G1 X-4.859 Y3.234 E8.43274
G1 X-5.187 Y2.678 E8.47028
G1 X-5.424 Y2.159 E8.50347
G1 X-5.622 Y1.578 E8.53918
G1 X-5.744 Y1.050 E8.57070
G1 X-5.799 Y0.663 E8.59348
G1 X-5.837 Y-0.016 E8.63299
G1 Z0.600 F7800.000
G1 E2.13299 F6600.00000
G92 E0
G1 Z0.650 F7800.000
G1 X-14.767 Y-0.016 F7800.000
G1 Z0.600 F7800.000
G1 E6.50000 F6600.00000
G1 X-14.767 Y-7.554 E6.93849 F1500.000
G1 X-13.187 Y-7.554 E7.03041
G1 X-12.998 Y-7.587 E7.04160
G1 X-12.990 Y-8.202 E7.07738
G1 X-13.019 Y-8.368 E7.08718
G1 X-13.187 Y-8.398 E7.09711
G1 X-14.767 Y-8.398 E7.18903
G1 X-14.767 Y-14.767 E7.55955 F1500.000
G1 X-8.398 Y-14.767 E7.93007
G1 X-8.398 Y-13.150 E8.02414
G1 X-8.346 Y-13.007 E8.03297
G1 X-8.207 Y-12.989 E8.04109
G1 X-7.588 Y-12.989 E8.07709
G1 X-7.554 Y-13.187 E8.08877
G1 X-7.554 Y-14.767 E8.18069
G1 X7.554 Y-14.767 E9.05948
G1 X7.554 Y-13.184 E9.15158
G1 X7.583 Y-12.998 E9.16255
G1 X8.202 Y-12.990 E9.19856
G1 X8.368 Y-13.019 E9.20836
G1 X8.398 Y-13.187 E9.21829
G1 X8.398 Y-14.767 E9.31022
G1 X14.767 Y-14.767 E9.68074
G1 X14.767 Y-8.398 E10.05126
G1 X13.187 Y-8.398 E10.14318
G1 X13.019 Y-8.368 E10.15311
G1 X12.989 Y-8.200 E10.16304
G1 X12.989 Y-7.748 E10.18931
G1 X13.015 Y-7.584 E10.19899
G1 X13.187 Y-7.554 E10.20914
G1 X14.767 Y-7.554 E10.30106
G1 X14.767 Y7.554 E11.17985
G1 X13.184 Y7.554 E11.27195
G1 X13.019 Y7.580 E11.28163
G1 X12.989 Y7.751 E11.29178
G1 X12.989 Y8.203 E11.31805
G1 X13.015 Y8.367 E11.32773
G1 X13.187 Y8.398 E11.33787
G1 X14.767 Y8.398 E11.42980
G1 X14.767 Y14.767 E11.80032
G1 X8.398 Y14.767 E12.17084
G1 X8.398 Y13.187 E12.26276
G1 X8.368 Y13.019 E12.27269
G1 X8.200 Y12.989 E12.28262
G1 X7.751 Y12.989 E12.30871
G1 X7.583 Y13.019 E12.31864
G1 X7.554 Y13.187 E12.32857
G1 X7.554 Y14.767 E12.42050
G1 X-7.554 Y14.767 E13.29928
G1 X-7.554 Y13.187 E13.39121
G1 X-7.587 Y12.998 E13.40240
G1 X-8.202 Y12.990 E13.43818
G1 X-8.368 Y13.019 E13.44798
G1 X-8.398 Y13.187 E13.45791
G1 X-8.398 Y14.767 E13.54983
G1 X-14.767 Y14.767 E13.92035
G1 X-14.767 Y8.398 E14.29087
G1 X-13.187 Y8.398 E14.38280
G1 X-13.019 Y8.368 E14.39273
G1 X-12.989 Y8.200 E14.40266
G1 X-12.989 Y7.751 E14.42874
G1 X-13.019 Y7.583 E14.43867
G1 X-13.187 Y7.554 E14.44860
G1 X-14.767 Y7.554 E14.54053
G1 X-14.767 Y0.059 E14.97647
G1 X-15.200 Y-0.266 F7800.000
G1 E8.47647 F6600.00000
G92 E0
G1 Z0.650 F7800.000
G1 X-15.611 Y-5.095 F7800.000
G1 Z0.600 F7800.000
G1 E6.50000 F6600.00000
G1 X-15.611 Y-15.411 E7.10006 F1500.000
G1 X-15.579 Y-15.579 E7.11002
G1 X-15.411 Y-15.611 E7.11997
G1 X15.416 Y-15.611 E8.91321
G1 X15.579 Y-15.579 E8.92286 F1500.000
G1 X15.611 Y-15.411 E8.93280
G1 X15.611 Y15.411 E10.72573
G1 X15.579 Y15.579 E10.73569
G1 X15.411 Y15.611 E10.74564
G1 X-15.411 Y15.611 E12.53857
G1 X-15.579 Y15.579 E12.54852
G1 X-15.611 Y15.411 E12.55847
G1 X-15.611 Y-5.020 E13.74698
G1 X-15.178 Y-5.345 F7800.000
G1 E7.24698 F6600.00000
G92 E0
G1 Z0.650 F7800.000
G1 X-5.838 Y-0.016 F7800.000
G1 Z0.600 F7800.000
G1 E6.50000 F6600.00000
G1 X-5.824 Y-0.423 E6.52367 F1500.000
G1 X-5.741 Y-1.055 E6.56074
G1 X-5.592 Y-1.675 E6.59785
G1 X-5.446 Y-2.100 E6.62397
G1 X-5.209 Y-2.636 E6.65810
G1 X-4.862 Y-3.231 E6.69814
G1 X-4.601 Y-3.597 E6.72429
G1 X-4.179 Y-4.074 E6.76133
G1 X-3.710 Y-4.506 E6.79844
G1 X-3.353 Y-4.779 E6.82459
G1 X-2.813 Y-5.118 E6.86164
G1 X-2.199 Y-5.409 E6.90115
G1 X-1.815 Y-5.547 E6.92491
G1 X-1.201 Y-5.713 E6.96193
G1 X-0.540 Y-5.817 E7.00086
G1 X0.106 Y-5.836 E7.03841
G1 X0.692 Y-5.797 E7.07261
G1 X1.323 Y-5.688 E7.10986
G1 X1.936 Y-5.506 E7.14706
G1 X2.527 Y-5.262 E7.18424
G1 X3.093 Y-4.955 E7.22172
G1 X3.391 Y-4.751 E7.24268
G1 X3.856 Y-4.383 E7.27719
G1 X4.314 Y-3.936 E7.31443
G1 X4.720 Y-3.436 E7.35190
G1 X4.924 Y-3.138 E7.37286
G1 X5.218 Y-2.623 E7.40739
G1 X5.471 Y-2.035 E7.44463
G1 X5.591 Y-1.676 E7.46663
G1 X5.742 Y-1.069 E7.50305
G1 X5.818 Y-0.480 E7.53759
G1 X5.838 Y0.160 E7.57482
G1 X5.783 Y0.798 E7.61205
G1 X5.671 Y1.381 E7.64658
G1 X5.580 Y1.729 E7.66755
G1 X5.352 Y2.332 E7.70501
G1 X5.064 Y2.903 E7.74224
G1 X4.745 Y3.404 E7.77676
G1 X4.525 Y3.689 E7.79773
G1 X4.091 Y4.165 E7.83519
G1 X3.612 Y4.590 E7.87244
G1 X3.126 Y4.930 E7.90696
G1 X2.818 Y5.117 E7.92792
G1 X2.237 Y5.396 E7.96541
G1 X1.632 Y5.605 E8.00261
G1 X1.009 Y5.749 E8.03980
G1 X0.374 Y5.828 E8.07705
G1 X-0.214 Y5.833 E8.11125
G1 X-0.568 Y5.809 E8.13189
G1 X-1.212 Y5.714 E8.16974
G1 X-1.784 Y5.558 E8.20425
G1 X-2.382 Y5.330 E8.24149
G1 X-2.952 Y5.039 E8.27869
G1 X-3.483 Y4.684 E8.31588
G1 X-3.979 Y4.272 E8.35335
G1 X-4.236 Y4.020 E8.37431
G1 X-4.620 Y3.567 E8.40883
G1 X-4.983 Y3.041 E8.44606
