; generated by Slic3r 1.2.9 on 2015-10-29 at 16:51:07

; external perimeters extrusion width = 0.50mm
; perimeters extrusion width = 0.85mm
; infill extrusion width = 1.02mm
; solid infill extrusion width = 0.85mm
; top infill extrusion width = 0.85mm

M107
M190 S40 ; set bed temperature
M104 S200 ; set temperature
G28 ; home all axes
G1 Z5 F5000 ; lift nozzle

M109 S200 ; wait for temperature to be reached
G21 ; set units to millimeters
G90 ; use absolute coordinates
M82 ; use absolute distances for extrusion
G92 E0
G1 Z0.800 F7800.000
G1 E-6.50000 F6600.00000
G92 E0
G1 Z0.850 F7800.000
G1 X28.286 Y0.000 F7800.000
G1 Z0.800 F7800.000
G1 E6.50000 F6600.00000
G1 X28.286 Y29.250 E8.24852 F1800.000
G1 X27.889 Y31.493 E8.38468
G1 X26.746 Y33.463 E8.52085
G1 X24.997 Y34.922 E8.65701
G1 X21.750 Y35.786 E8.85784
G1 X-21.750 Y35.786 E11.45820
G1 X-23.993 Y35.389 E11.59436
G1 X-25.963 Y34.246 E11.73053
G1 X-27.422 Y32.497 E11.86669
G1 X-28.286 Y29.250 E12.06751
G1 X-28.286 Y-29.250 E15.56455
G1 X-27.889 Y-31.493 E15.70071
G1 X-26.746 Y-33.463 E15.83688
G1 X-24.997 Y-34.922 E15.97304
G1 X-21.750 Y-35.786 E16.17387
G1 X21.750 Y-35.786 E18.77423
G1 X23.993 Y-35.389 E18.91039
G1 X25.963 Y-34.246 E19.04656 F1800.000
G1 X27.422 Y-32.497 E19.18272
G1 X28.286 Y-29.250 E19.38354
G1 X28.286 Y-0.075 E21.12758
G1 E14.62758 F6600.00000
G92 E0
G1 Z0.850 F7800.000
G1 X-3.798 Y16.938 F7800.000
G1 Z0.800 F7800.000
G1 E6.50000 F6600.00000
G1 X-3.543 Y16.937 E6.51519 F1800.000
G1 X-3.306 Y16.978 E6.52958
G1 X-3.114 Y17.039 E6.54165
G1 X-2.805 Y17.180 E6.56196
G1 X-2.019 Y17.687 E6.61785
G1 X-0.344 Y18.627 E6.73267
G1 X2.066 Y19.951 E6.89705
G1 X3.764 Y20.846 E7.01181
G1 X5.657 Y19.998 E7.13582
G1 X7.002 Y19.445 E7.22277
G1 X8.104 Y19.061 E7.29250
G1 X8.554 Y18.948 E7.32025
G1 X8.834 Y18.913 E7.33709
G1 X9.113 Y18.929 E7.35380
G1 X9.484 Y19.041 E7.37702
G1 X9.778 Y19.229 E7.39787
G1 X10.057 Y19.529 E7.42238
G1 X10.251 Y19.867 E7.44566
G1 X10.361 Y20.254 E7.46969
G1 X10.381 Y20.610 E7.49103
G1 X10.319 Y21.009 E7.51512
G1 X10.196 Y21.298 E7.53392
G1 X10.026 Y21.538 E7.55150
G1 X9.760 Y21.775 E7.57281
G1 X9.478 Y21.938 E7.59228
G1 X7.493 Y22.659 E7.71855
G1 X6.564 Y23.042 E7.77859
G1 X5.578 Y23.479 E7.84302
G1 X4.362 Y24.050 E7.92337
G1 X-3.010 Y27.628 E8.41322
G1 X-3.250 Y27.725 E8.42869
G1 X-3.544 Y27.798 E8.44679
G1 X-3.895 Y27.801 E8.46775
G1 X-4.135 Y27.754 E8.48237
G1 X-4.491 Y27.593 E8.50575
G1 X-4.796 Y27.329 E8.52985
G1 X-5.013 Y27.033 E8.55178
G1 X-5.109 Y26.842 E8.56458
G1 X-5.198 Y26.577 E8.58130
G1 X-5.246 Y26.174 E8.60553
G1 X-5.194 Y25.763 E8.63030
G1 X-5.029 Y25.385 E8.65494
G1 X-4.765 Y25.068 E8.67964
G1 X-4.437 Y24.825 E8.70405
G1 X-4.021 Y24.580 E8.73290
G1 X-2.634 Y23.833 E8.82707
G1 X-1.979 Y23.510 E8.87071
G1 X0.114 Y22.560 E9.00811
G1 X-1.140 Y21.914 E9.09248
G1 X-2.728 Y21.021 E9.20138
G1 X-3.364 Y20.632 E9.24594
G1 X-4.118 Y20.137 E9.29985
G1 X-4.670 Y19.742 E9.34046
G1 X-4.903 Y19.518 E9.35977
G1 X-5.012 Y19.366 E9.37092
G1 X-5.133 Y19.121 E9.38728
G1 X-5.224 Y18.731 E9.41124
G1 X-5.222 Y18.365 E9.43308
G1 X-5.119 Y17.957 E9.45822
G1 X-4.907 Y17.589 E9.48366
G1 X-4.608 Y17.277 E9.50946
G1 X-4.295 Y17.073 E9.53181
G1 X-4.047 Y16.982 E9.54759
G1 X-3.871 Y16.951 E9.55823
G1 X-3.685 Y16.711 F7800.000
G1 E3.05823 F6600.00000
G92 E0
G1 Z0.850 F7800.000
G1 X-5.142 Y13.461 F7800.000
G1 Z0.800 F7800.000
G1 E6.50000 F6600.00000
G1 X-5.291 Y13.084 E6.52424 F1800.000
G1 X-5.386 Y12.759 E6.54444
G1 X-5.496 Y12.065 E6.58646
G1 X-5.509 Y11.238 E6.63591
G1 X-5.435 Y10.533 E6.67831
G1 X-5.279 Y9.856 E6.71979
G1 X-5.035 Y9.213 E6.76091
G1 X-4.704 Y8.616 E6.80171
G1 X-4.292 Y8.072 E6.84255
G1 X-3.868 Y7.638 E6.87879
G1 X-3.286 Y7.177 E6.92321
G1 X-2.676 Y6.817 E6.96553
G1 X-2.076 Y6.559 E7.00458
G1 X-1.695 Y6.435 E7.02851
G1 X-1.303 Y6.335 E7.05269
G1 X-0.631 Y6.221 E7.09344
G1 X0.204 Y6.166 E7.14347
G1 X0.878 Y6.186 E7.18378
G1 X1.633 Y6.302 E7.22943
G1 X1.982 Y6.396 E7.25104
G1 X2.361 Y6.528 E7.27505
G1 X2.686 Y6.673 E7.29631
G1 X3.036 Y6.863 E7.32012
G1 X3.332 Y7.060 E7.34138
G1 X3.653 Y7.308 E7.36564
G1 X4.193 Y7.839 E7.41088
G1 X4.643 Y8.433 E7.45546
G1 X4.953 Y8.996 E7.49389
G1 X5.174 Y9.554 E7.52974
G1 X5.306 Y10.043 E7.56000
G1 X5.408 Y10.696 E7.59951
G1 X5.438 Y11.318 E7.63675
G1 X5.396 Y12.182 E7.68849
G1 X5.279 Y12.960 E7.73552
G1 X5.200 Y13.253 E7.75366
G1 X5.066 Y13.622 E7.77709
G1 X4.927 Y13.900 E7.79571
G1 X5.244 Y14.288 E7.82568
G1 X5.368 Y14.575 E7.84438
G1 X5.429 Y14.850 E7.86122
G1 X5.428 Y15.247 E7.88494
G1 X5.331 Y15.629 E7.90851
G1 X5.169 Y15.934 E7.92915
G1 X4.934 Y16.208 E7.95072
G1 X4.757 Y16.347 E7.96418
G1 X4.454 Y16.496 E7.98436
G1 X4.189 Y16.560 E8.00068
G1 X3.953 Y16.576 E8.01482
G1 X2.939 Y16.455 E8.07584
G1 X2.032 Y16.395 E8.13017
G1 X0.608 Y16.352 E8.21531
G1 X-0.980 Y16.343 E8.31026
G1 X-2.764 Y16.411 E8.41697
G1 X-7.140 Y16.704 E8.67918
G1 X-8.862 Y16.756 E8.78215
G1 X-9.159 Y16.728 E8.79999
G1 X-9.431 Y16.656 E8.81682
G1 X-9.757 Y16.483 E8.83888
G1 X-10.018 Y16.253 E8.85968
G1 X-10.234 Y15.931 E8.88285
G1 X-10.335 Y15.652 E8.90060
G1 X-10.383 Y15.245 E8.92509
G1 X-10.355 Y14.897 E8.94594
G1 X-10.255 Y14.553 E8.96736
G1 X-10.113 Y14.301 E8.98466
G1 X-9.865 Y14.049 E9.00582
G1 X-9.576 Y13.877 E9.02589
G1 X-9.307 Y13.783 E9.04294
G1 X-9.027 Y13.726 E9.06000
G1 X-7.977 Y13.617 E9.12312
G1 X-6.558 Y13.524 E9.20815
G1 X-5.217 Y13.464 E9.28836
G1 X-5.430 Y13.175 F7800.000
G1 X-5.614 Y-1.164 F7800.000
G1 X-5.698 Y-1.472 E9.30746 F1800.000
G1 X-5.723 Y-1.801 E9.32717
G1 X-5.714 Y-2.005 E9.33940
G1 X-5.621 Y-2.418 E9.36468
G1 X-5.488 Y-2.690 E9.38281
G1 X-5.346 Y-2.891 E9.39751
G1 X-5.175 Y-3.065 E9.41212
G1 X-4.883 Y-3.262 E9.43314
G1 X-4.640 Y-3.356 E9.44870
G1 X-4.325 Y-3.410 E9.46779
G1 X-2.641 Y-3.349 E9.56852
G1 X-1.998 Y-3.357 E9.60698
G1 X-1.033 Y-3.404 E9.66472
G1 X1.162 Y-3.560 E9.79629
G1 X2.429 Y-3.606 E9.87204
G1 X2.907 Y-3.590 E9.90068
G1 X3.780 Y-3.507 E9.95309
G1 X4.369 Y-3.474 E9.98837
G1 X4.558 Y-3.436 E9.99988
G1 X4.835 Y-3.330 E10.01760
G1 X5.177 Y-3.092 E10.04248
G1 X5.410 Y-2.819 E10.06398
G1 X5.535 Y-2.592 E10.07947
G1 X5.619 Y-2.350 E10.09476
G1 X5.668 Y-2.027 E10.11431
G1 X5.657 Y-1.669 E10.13572
G1 X5.575 Y-1.321 E10.15707
G1 X5.418 Y-1.008 E10.17799
G1 X5.266 Y-0.812 E10.19285
G1 X5.083 Y-0.640 E10.20782
G1 X4.825 Y-0.474 E10.22619
G1 X4.579 Y-0.377 E10.24198
G1 X4.375 Y-0.333 E10.25449
G1 X3.714 Y-0.294 E10.29407
G1 X2.775 Y-0.208 E10.35045
G1 X2.111 Y-0.186 E10.39017
G1 X0.887 Y-0.073 E10.46361
G1 X0.224 Y0.133 E10.50511
G1 X-0.451 Y0.403 E10.54858
G1 X-0.915 Y0.636 E10.57960
G1 X-1.379 Y0.919 E10.61209
G1 X-1.719 Y1.170 E10.63735
G1 X-2.080 Y1.508 E10.66695
G1 X-2.267 Y1.744 E10.68494
G1 X-2.395 Y1.980 E10.70097
G1 X-2.512 Y2.392 E10.72658
G1 X-2.187 Y2.443 E10.74621
G1 X-1.863 Y2.447 E10.76560
G1 X0.293 Y2.360 E10.89458
G1 X1.368 Y2.393 E10.95886
G1 X2.363 Y2.491 E11.01865
G1 X4.296 Y2.739 E11.13513
G1 X4.713 Y2.829 E11.16062
G1 X5.034 Y2.981 E11.18184
G1 X5.319 Y3.221 E11.20412
G1 X5.520 Y3.536 E11.22645
G1 X5.630 Y3.873 E11.24767
G1 X5.673 Y4.319 E11.27445
G1 X5.623 Y4.745 E11.30005
G1 X5.494 Y5.092 E11.32216
G1 X5.259 Y5.429 E11.34672
G1 X4.999 Y5.660 E11.36754
G1 X4.773 Y5.788 E11.38310
G1 X4.424 Y5.892 E11.40486
G1 X4.173 Y5.911 E11.41991
G1 X3.623 Y5.887 E11.45279
G1 X3.217 Y5.847 E11.47720
G1 X1.706 Y5.617 E11.56854
G1 X0.897 Y5.528 E11.61717
G1 X0.435 Y5.509 E11.64484
G1 X-1.115 Y5.520 E11.73749
G1 X-1.971 Y5.479 E11.78871
G1 X-2.754 Y5.381 E11.83592
G1 X-3.470 Y5.213 E11.87987
G1 X-3.806 Y5.091 E11.90121
G1 X-4.083 Y4.960 E11.91953
G1 X-4.335 Y4.807 E11.93716
G1 X-4.601 Y4.608 E11.95704
G1 X-4.889 Y4.318 E11.98146
G1 X-5.082 Y4.055 E12.00093
G1 X-5.227 Y3.801 E12.01847
G1 X-5.379 Y3.420 E12.04294
G1 X-5.461 Y3.092 E12.06315
G1 X-5.506 Y2.796 E12.08108
G1 X-5.529 Y2.361 E12.10712
G1 X-5.504 Y1.941 E12.13224
G1 X-5.431 Y1.530 E12.15725
G1 X-5.338 Y1.207 E12.17734
G1 X-5.230 Y0.922 E12.19553
G1 X-5.042 Y0.538 E12.22107
G1 X-4.860 Y0.235 E12.24224
G1 X-4.486 Y-0.287 E12.28060
G1 X-4.865 Y-0.400 E12.30427
G1 X-5.100 Y-0.529 E12.32028
G1 X-5.285 Y-0.675 E12.33436
G1 X-5.451 Y-0.863 E12.34936
G1 X-5.582 Y-1.096 E12.36532
G1 X-5.928 Y-1.221 F7800.000
G1 E5.86532 F6600.00000
G92 E0
G1 Z0.850 F7800.000
G1 X-2.623 Y-3.885 F7800.000
G1 Z0.800 F7800.000
G1 E6.50000 F6600.00000
G1 X-2.666 Y-4.159 E6.51660 F1800.000
G1 X-2.361 Y-4.255 E6.53575
G1 X-2.207 Y-4.354 E6.54670
G1 X-1.967 Y-4.400 E6.56132
G1 X-1.451 Y-4.460 E6.59233
G1 X-0.303 Y-4.503 E6.66102
G1 X0.876 Y-4.466 E6.73155
G1 X1.445 Y-4.404 E6.76578
G1 X1.435 Y-4.106 E6.78365
G1 X-1.065 Y-3.939 E6.93343
G1 X-2.548 Y-3.886 E7.02211
G1 E0.52211 F6600.00000
G92 E0
G1 Z0.850 F7800.000
G1 X5.520 Y-5.561 F7800.000
G1 Z0.800 F7800.000
G1 E6.50000 F6600.00000
G1 X5.472 Y-5.158 E6.52423 F1800.000
G1 X5.407 Y-4.955 E6.53700
G1 X5.270 Y-4.683 E6.55518
G1 X5.022 Y-4.378 E6.57870
G1 X4.858 Y-4.242 E6.59144
G1 X4.665 Y-4.127 E6.60488
G1 X4.310 Y-4.017 E6.62705
G1 X4.005 Y-4.006 E6.64532
G1 X3.575 Y-4.164 E6.67269
G1 X2.131 Y-4.807 E6.76716
G1 X1.600 Y-4.926 E6.79972
G1 X0.913 Y-5.001 E6.84099
G1 X-0.300 Y-5.039 E6.91354
G1 X-0.968 Y-5.026 E6.95351
G1 X-1.499 Y-4.994 E6.98527
G1 X-2.048 Y-4.930 E7.01833
G1 X-2.410 Y-4.861 E7.04037
G1 X-2.590 Y-4.744 E7.05319
G1 X-2.880 Y-4.654 E7.07133
G1 X-3.096 Y-4.636 E7.08429
G1 X-3.320 Y-4.658 E7.09774
G1 X-3.526 Y-4.718 E7.11061
G1 X-3.733 Y-4.818 E7.12430
G1 X-3.965 Y-4.988 E7.14152
G1 X-4.138 Y-5.161 E7.15615
G1 X-4.413 Y-5.528 E7.18355
G1 X-4.719 Y-6.109 E7.22284
G1 X-5.015 Y-6.880 E7.27221
G1 X-5.202 Y-7.587 E7.31586
G1 X-5.274 Y-8.120 E7.34802
G1 X-5.274 Y-8.725 E7.38421
G1 X-5.186 Y-9.505 E7.43116
G1 X-5.032 Y-10.150 E7.47078
G1 X-4.887 Y-10.573 E7.49750
G1 X-4.755 Y-10.884 E7.51773
G1 X-4.443 Y-11.467 E7.55725
G1 X-3.992 Y-12.107 E7.60401
G1 X-3.453 Y-12.697 E7.65179
G1 X-2.855 Y-13.208 E7.69883
G1 X-2.280 Y-13.586 E7.73997
G1 X-1.647 Y-13.891 E7.78200
G1 X-1.091 Y-14.081 E7.81707
G1 X-0.399 Y-14.227 E7.85940
G1 X0.198 Y-14.279 E7.89517
G1 X1.064 Y-14.264 E7.94695
G1 X1.855 Y-14.172 E7.99459
G1 X2.417 Y-14.048 E8.02896
G1 X2.695 Y-13.965 E8.04631
G1 X3.284 Y-13.726 E8.08429
G1 X3.529 Y-13.595 E8.10094
G1 X3.885 Y-13.362 E8.12633
G1 X4.168 Y-13.135 E8.14806
G1 X4.536 Y-12.752 E8.17983
G1 X4.754 Y-12.458 E8.20170
G1 X5.060 Y-11.910 E8.23921
G1 X5.254 Y-11.402 E8.27170
G1 X5.410 Y-10.769 E8.31066
G1 X5.494 Y-10.101 E8.35092
G1 X5.511 Y-9.336 E8.39668
G1 X5.429 Y-8.805 E8.42879
G1 X5.252 Y-8.185 E8.46731
G1 X4.959 Y-7.430 E8.51576
G1 X4.739 Y-6.951 E8.54724
G1 X5.003 Y-6.634 E8.57190
G1 X5.270 Y-6.248 E8.59995
G1 X5.444 Y-5.904 E8.62303
G1 X5.504 Y-5.634 E8.63955
G1 X5.869 Y-5.356 F7800.000
G1 E2.13955 F6600.00000
G92 E0
G1 Z0.850 F7800.000
G1 X-7.909 Y-15.844 F7800.000
G1 Z0.800 F7800.000
G1 E6.50000 F6600.00000
G1 X-8.111 Y-16.056 E6.51750 F1800.000
G1 X-8.281 Y-16.299 E6.53520
G1 X-8.432 Y-16.576 E6.55408
G1 X-8.613 Y-16.994 E6.58127
G1 X-8.776 Y-17.466 E6.61116
G1 X-8.953 Y-18.093 E6.65007
G1 X-9.135 Y-18.972 E6.70379
G1 X-9.197 Y-19.538 E6.73779
G1 X-9.193 Y-20.210 E6.77797
G1 X-9.104 Y-20.997 E6.82533
G1 X-8.924 Y-21.765 E6.87246
G1 X-8.653 Y-22.509 E6.91980
G1 X-8.307 Y-23.203 E6.96616
G1 X-8.106 Y-23.536 E6.98937
G1 X-7.752 Y-24.044 E7.02641
G1 X-7.197 Y-24.705 E7.07802
G1 X-6.603 Y-25.262 E7.12668
G1 X-6.041 Y-25.662 E7.16789
G1 X-5.450 Y-25.961 E7.20751
G1 X-5.096 Y-26.087 E7.22998
G1 X-4.813 Y-26.159 E7.24742
G1 X-4.367 Y-26.228 E7.27441
G1 X-3.878 Y-26.239 E7.30363
G1 X-3.486 Y-26.182 E7.32734
G1 X-3.282 Y-26.124 E7.34000
G1 X-2.991 Y-26.001 E7.35887
G1 X-2.650 Y-25.789 E7.38290
G1 X-2.288 Y-25.459 E7.41218
G1 X-1.956 Y-25.027 E7.44476
G1 X-1.733 Y-24.643 E7.47130
G1 X-1.461 Y-24.028 E7.51150
G1 X-1.334 Y-23.666 E7.53442
G1 X-1.142 Y-22.939 E7.57935
G1 X-1.072 Y-22.554 E7.60275
G1 X-0.999 Y-21.932 E7.64022
G1 X-0.917 Y-20.242 E7.74137
G1 X-0.825 Y-19.364 E7.79413
G1 X-0.749 Y-18.969 E7.81818
G1 X-0.677 Y-18.724 E7.83343
G1 X-0.590 Y-18.539 E7.84563
G1 X-0.488 Y-18.385 E7.85669
G1 X-0.285 Y-18.189 E7.87353
G1 X-0.083 Y-18.073 E7.88750
G1 X0.211 Y-17.982 E7.90589
G1 X0.516 Y-17.950 E7.92419
G1 X0.722 Y-17.963 E7.93652
G1 X0.885 Y-18.017 E7.94681
G1 X1.049 Y-18.117 E7.95833
G1 X1.271 Y-18.321 E7.97633
G1 X1.523 Y-18.652 E8.00118
G1 X1.789 Y-19.119 E8.03332
G1 X2.045 Y-19.682 E8.07030
G1 X2.298 Y-20.412 E8.11646
G1 X2.421 Y-20.929 E8.14827
G1 X2.518 Y-21.529 E8.18458
G1 X2.560 Y-22.296 E8.23047
G1 X2.545 Y-22.686 E8.25385
G1 X2.500 Y-23.047 E8.27556
G1 X2.425 Y-23.374 E8.29564
G1 X2.357 Y-23.573 E8.30818
G1 X2.228 Y-23.837 E8.32575
G1 X2.109 Y-24.009 E8.33827
G1 X1.926 Y-24.201 E8.35415
G1 X1.704 Y-24.358 E8.37038
G1 X1.240 Y-24.615 E8.40208
G1 X1.046 Y-24.773 E8.41707
G1 X0.880 Y-24.954 E8.43170
G1 X0.717 Y-25.216 E8.45017
G1 X0.603 Y-25.552 E8.47140
G1 X0.569 Y-25.842 E8.48885
G1 X0.578 Y-26.149 E8.50721
G1 X0.650 Y-26.486 E8.52778
G1 X0.758 Y-26.742 E8.54442
G1 X0.887 Y-26.937 E8.55837
G1 X1.106 Y-27.162 E8.57714
G1 X1.305 Y-27.302 E8.59173
G1 X1.579 Y-27.431 E8.60985
G1 X1.819 Y-27.498 E8.62470
G1 X2.145 Y-27.535 E8.64431
G1 X2.392 Y-27.532 E8.65912
G1 X2.713 Y-27.490 E8.67846
G1 X3.027 Y-27.404 E8.69790
G1 X3.328 Y-27.276 E8.71747
G1 X3.612 Y-27.110 E8.73714
G1 X3.878 Y-26.911 E8.75700
G1 X4.085 Y-26.722 E8.77372
G1 X4.399 Y-26.371 E8.80188
G1 X4.613 Y-26.084 E8.82331
G1 X4.816 Y-25.759 E8.84620
G1 X4.979 Y-25.449 E8.86712
G1 X5.136 Y-25.085 E8.89087
G1 X5.362 Y-24.365 E8.93595
G1 X5.467 Y-23.850 E8.96734
G1 X5.565 Y-22.941 E9.02199
G1 X5.581 Y-22.382 E9.05545
G1 X5.540 Y-21.286 E9.12101
G1 X5.492 Y-20.770 E9.15197
G1 X5.404 Y-20.144 E9.18975
G1 X5.216 Y-19.234 E9.24534
G1 X4.956 Y-18.354 E9.30016
G1 X4.623 Y-17.512 E9.35431
G1 X4.407 Y-17.075 E9.38342
G1 X4.126 Y-16.592 E9.41688
G1 X3.860 Y-16.212 E9.44459
G1 X3.425 Y-15.716 E9.48399
G1 X3.046 Y-15.382 E9.51419
G1 X2.532 Y-15.046 E9.55094
G1 X2.243 Y-14.906 E9.57015
G1 X1.827 Y-14.758 E9.59649
G1 X1.350 Y-14.651 E9.62574
G1 X1.032 Y-14.614 E9.64489
G1 X0.710 Y-14.603 E9.66416
G1 X0.136 Y-14.632 E9.69847
G1 X-0.247 Y-14.685 E9.72161
G1 X-0.700 Y-14.792 E9.74943
G1 X-1.133 Y-14.945 E9.77688
G1 X-1.428 Y-15.085 E9.79639
G1 X-1.743 Y-15.268 E9.81815
G1 X-2.109 Y-15.540 E9.84544
G1 X-2.446 Y-15.858 E9.87313
G1 X-2.865 Y-16.378 E9.91304
G1 X-3.201 Y-16.950 E9.95267
G1 X-3.433 Y-17.490 E9.98782
G1 X-3.634 Y-18.157 E10.02951
G1 X-3.782 Y-18.953 E10.07788
G1 X-3.832 Y-19.448 E10.10762
G1 X-3.961 Y-21.805 E10.24872
G1 X-4.032 Y-22.192 E10.27222
G1 X-4.165 Y-22.578 E10.29666
G1 X-4.279 Y-22.758 E10.30938
G1 X-4.407 Y-22.862 E10.31927
G1 X-4.562 Y-22.897 E10.32876
G1 X-4.711 Y-22.875 E10.33776
G1 X-4.894 Y-22.790 E10.34981
G1 X-5.082 Y-22.636 E10.36433
G1 X-5.249 Y-22.441 E10.37965
G1 X-5.471 Y-22.104 E10.40379
G1 X-5.680 Y-21.693 E10.43136
G1 X-5.823 Y-21.332 E10.45459
G1 X-5.953 Y-20.908 E10.48107
G1 X-6.055 Y-20.363 E10.51423
G1 X-6.092 Y-19.794 E10.54834
G1 X-6.051 Y-19.313 E10.57718
G1 X-5.804 Y-18.000 E10.65703
G1 X-5.729 Y-17.437 E10.69096
G1 X-5.724 Y-17.031 E10.71526
G1 X-5.763 Y-16.797 E10.72945
G1 X-5.844 Y-16.545 E10.74530
G1 X-6.007 Y-16.259 E10.76491
G1 X-6.228 Y-16.014 E10.78468
G1 X-6.463 Y-15.836 E10.80232
G1 X-6.721 Y-15.704 E10.81959
G1 X-7.004 Y-15.623 E10.83719
G1 X-7.399 Y-15.603 E10.86087
G1 X-7.664 Y-15.682 E10.87737
G1 X-7.847 Y-15.803 E10.89050
G1 X-8.188 Y-15.754 F7800.000
G1 X-1.500 Y-14.507 F7800.000
G1 X-1.850 Y-14.388 E10.91260 F1800.000
G1 X-2.545 Y-14.053 E10.95867
G1 X-3.178 Y-13.637 E11.00395
G1 X-3.827 Y-13.083 E11.05500
G1 X-4.411 Y-12.443 E11.10677
G1 X-4.900 Y-11.749 E11.15753
G1 X-5.238 Y-11.116 E11.20046
G1 X-5.387 Y-10.765 E11.22325
G1 X-5.547 Y-10.300 E11.25263
G1 X-5.715 Y-9.598 E11.29576
G1 X-5.810 Y-8.755 E11.34648
G1 X-5.810 Y-8.083 E11.38663
G1 X-5.728 Y-7.482 E11.42291
G1 X-5.526 Y-6.716 E11.47028
G1 X-5.208 Y-5.888 E11.52331
G1 X-4.867 Y-5.241 E11.56701
G1 X-4.544 Y-4.809 E11.59924
G1 X-4.315 Y-4.581 E11.61859
G1 X-4.010 Y-4.357 E11.64117
G1 X-3.636 Y-4.176 E11.66600
G1 X-3.699 Y-3.923 E11.68160
G1 X-4.361 Y-3.947 E11.72121
G1 X-4.784 Y-3.875 E11.74683
