; generated by Slic3r 1.2.9 on 2015-10-13 at 14:07:19

; abs medium changes
; layer height .2
; ext perimeter extr width 0 to 85%(improve accuracy) (worked good .005in small)
; top solid fill  0 to85%(improve top layer)

; external perimeters extrusion width = 0.24mm
; perimeters extrusion width = 0.26mm
; infill extrusion width = 0.26mm
; solid infill extrusion width = 0.85mm
; top infill extrusion width = 0.40mm
; support material extrusion width = 0.50mm

M190 S85 ; set bed temperature
M104 S225 ; set temperature
G28 ; home all axes
G1 Z5 F5000 ; lift nozzle

M109 S225 ; wait for temperature to be reached
G21 ; set units to millimeters
G90 ; use absolute coordinates
M82 ; use absolute distances for extrusion
G92 E0
G1 Z0.350 F12000.000
G1 E-6.50000 F6600.00000
G92 E0
G1 Z0.400 F12000.000
G1 X22.798 Y0.000 F12000.000
G1 Z0.350 F12000.000
G1 E6.50000 F6600.00000
G1 X22.798 Y14.766 E7.38571 F1800.000
G1 X22.770 Y15.323 E7.41914
G1 X22.648 Y16.522 E7.49140
G1 X22.091 Y18.438 E7.61111
G1 X21.805 Y19.009 E7.64945
G1 X20.360 Y20.813 E7.78804
G1 X19.549 Y21.474 E7.85081
G1 X17.352 Y22.564 E7.99794
G1 X16.807 Y22.695 E8.03157
G1 X15.583 Y22.848 E8.10556
G1 X15.032 Y22.855 E8.13857
G1 X-15.158 Y22.855 E9.94943
G1 X-15.710 Y22.848 E9.98257
G1 X-16.718 Y22.741 E10.04336
G1 X-17.154 Y22.653 E10.07000
G1 X-18.483 Y22.205 E10.15412
G1 X-18.868 Y22.018 E10.17982
G1 X-19.896 Y21.370 E10.25271
G1 X-20.238 Y21.097 E10.27898
G1 X-21.303 Y19.969 E10.37198
G1 X-21.583 Y19.573 E10.40111
G1 X-22.357 Y17.994 E10.50657
G1 X-22.538 Y17.400 E10.54385
G1 X-22.777 Y15.909 E10.63441
G1 X-22.797 Y14.992 E10.68942
G1 X-22.798 Y-14.766 E12.47437
G1 X-22.770 Y-15.324 E12.50784
G1 X-22.648 Y-16.523 E12.58012
G1 X-22.091 Y-18.439 E12.69979
G1 X-21.805 Y-19.009 E12.73809
G1 X-20.361 Y-20.812 E12.87666
G1 X-19.550 Y-21.474 E12.93945
G1 X-17.352 Y-22.564 E13.08660
G1 X-16.807 Y-22.695 E13.12022
G1 X-15.583 Y-22.848 E13.19420
G1 X13.720 Y-22.855 E14.95185
G1 X15.710 Y-22.848 E15.07123 F1800.000
G1 X16.718 Y-22.741 E15.13199
G1 X17.153 Y-22.653 E15.15863
G1 X18.482 Y-22.206 E15.24276
G1 X18.868 Y-22.018 E15.26846
G1 X19.896 Y-21.370 E15.34136
G1 X20.238 Y-21.097 E15.36762
G1 X21.302 Y-19.969 E15.46062
G1 X21.583 Y-19.573 E15.48975
G1 X22.357 Y-17.994 E15.59521
G1 X22.538 Y-17.400 E15.63248
G1 X22.777 Y-15.909 E15.72306
G1 X22.798 Y-14.873 E15.78518
G1 X22.798 Y-0.075 E16.67281
G1 X22.418 Y-0.075 F12000.000
G1 X22.418 Y14.766 E17.56302 F1800.000
G1 X22.392 Y15.285 E17.59415
G1 X22.270 Y16.483 E17.66641
G1 X21.752 Y18.268 E17.77788
G1 X21.465 Y18.839 E17.81622
G1 X20.120 Y20.518 E17.94527
G1 X19.309 Y21.180 E18.00804
G1 X17.263 Y22.195 E18.14505
G1 X16.718 Y22.326 E18.17867
G1 X15.578 Y22.469 E18.24757
G1 X15.032 Y22.475 E18.28031
G1 X-15.158 Y22.475 E20.09116
G1 X-15.705 Y22.468 E20.12399
G1 X-16.643 Y22.368 E20.18059
G1 X-17.079 Y22.281 E20.20723
G1 X-18.316 Y21.864 E20.28556
G1 X-18.702 Y21.676 E20.31126
G1 X-19.659 Y21.073 E20.37914
G1 X-20.001 Y20.800 E20.40540
G1 X-20.992 Y19.750 E20.49200
G1 X-21.273 Y19.353 E20.52113
G1 X-21.994 Y17.883 E20.61933
G1 X-22.175 Y17.289 E20.65661
G1 X-22.397 Y15.901 E20.74095
G1 X-22.417 Y14.984 E20.79595
G1 X-22.418 Y-14.766 E22.58041
G1 X-22.392 Y-15.285 E22.61158
G1 X-22.270 Y-16.484 E22.68386
G1 X-21.752 Y-18.268 E22.79530
G1 X-21.465 Y-18.839 E22.83360
G1 X-20.120 Y-20.518 E22.96263
G1 X-19.310 Y-21.180 E23.02541
G1 X-17.263 Y-22.195 E23.16244
G1 X-16.718 Y-22.326 E23.19606
G1 X-15.578 Y-22.469 E23.26494
G1 X15.158 Y-22.475 E25.10855
G1 X15.705 Y-22.468 E25.14138 F1800.000
G1 X16.643 Y-22.368 E25.19796
G1 X17.079 Y-22.281 E25.22460
G1 X18.316 Y-21.864 E25.30293
G1 X18.702 Y-21.677 E25.32863
G1 X19.659 Y-21.073 E25.39652
G1 X20.001 Y-20.800 E25.42278
G1 X20.992 Y-19.750 E25.50938
G1 X21.273 Y-19.354 E25.53851
G1 X21.994 Y-17.884 E25.63671
G1 X22.175 Y-17.289 E25.67398
G1 X22.397 Y-15.901 E25.75833
G1 X22.418 Y-14.873 E25.81996
G1 X22.418 Y-0.150 E26.70309
G1 X22.038 Y-0.150 F12000.000
G1 X22.038 Y14.766 E27.59779 F1800.000
G1 X22.014 Y15.246 E27.62663
G1 X21.892 Y16.445 E27.69888
G1 X21.412 Y18.098 E27.80212
G1 X21.126 Y18.669 E27.84045
G1 X19.880 Y20.224 E27.95997
G1 X19.069 Y20.886 E28.02274
G1 X17.174 Y21.826 E28.14962
G1 X16.629 Y21.957 E28.18324
G1 X15.573 Y22.089 E28.24705
G1 X15.091 Y22.095 E28.27597
G1 X-15.700 Y22.088 E30.12286
G1 X-16.569 Y21.996 E30.17529
G1 X-17.004 Y21.908 E30.20193
G1 X-18.150 Y21.522 E30.27446
G1 X-18.536 Y21.335 E30.30016
G1 X-19.422 Y20.776 E30.36302
G1 X-19.764 Y20.503 E30.38929
G1 X-20.682 Y19.530 E30.46949
G1 X-20.963 Y19.134 E30.49862
G1 X-21.630 Y17.773 E30.58956
G1 X-21.812 Y17.178 E30.62684
G1 X-22.017 Y15.892 E30.70494
G1 X-22.037 Y14.976 E30.75994
G1 X-22.038 Y-14.766 E32.54392
G1 X-22.014 Y-15.247 E32.57278
G1 X-21.892 Y-16.446 E32.64506
G1 X-21.412 Y-18.098 E32.74826
G1 X-21.126 Y-18.669 E32.78656
G1 X-19.880 Y-20.224 E32.90606
G1 X-19.069 Y-20.886 E32.96884
G1 X-17.174 Y-21.826 E33.09574
G1 X-16.629 Y-21.957 E33.12936
G1 X-15.574 Y-22.089 E33.19315
G1 X13.720 Y-22.095 E34.95024
G1 X15.700 Y-22.088 E35.06899 F1800.000
G1 X16.569 Y-21.996 E35.12138
G1 X17.004 Y-21.908 E35.14802
G1 X18.150 Y-21.522 E35.22057
G1 X18.535 Y-21.335 E35.24627
G1 X19.422 Y-20.776 E35.30913
G1 X19.764 Y-20.503 E35.33540
G1 X20.682 Y-19.531 E35.41559
G1 X20.963 Y-19.134 E35.44472
G1 X21.630 Y-17.773 E35.53567
G1 X21.812 Y-17.178 E35.57294
G1 X22.017 Y-15.893 E35.65105
G1 X22.038 Y-14.873 E35.71219
G1 X22.038 Y-0.225 E36.59083
G1 X21.658 Y-0.225 F12000.000
G1 X21.658 Y14.766 E37.49003 F1800.000
G1 X21.636 Y15.208 E37.51656
G1 X21.514 Y16.407 E37.58882
G1 X21.073 Y17.927 E37.68381
G1 X20.786 Y18.499 E37.72215
G1 X19.640 Y19.930 E37.83212
G1 X18.829 Y20.591 E37.89490
G1 X17.085 Y21.456 E38.01165
G1 X16.540 Y21.587 E38.04527
G1 X15.569 Y21.709 E38.10399
G1 X15.087 Y21.715 E38.13291
G1 X-15.694 Y21.708 E39.97921
G1 X-16.494 Y21.623 E40.02744
G1 X-16.930 Y21.536 E40.05408
G1 X-17.984 Y21.180 E40.12083
G1 X-18.370 Y20.993 E40.14653
G1 X-19.185 Y20.479 E40.20437
G1 X-19.528 Y20.206 E40.23064
G1 X-20.372 Y19.311 E40.30444
G1 X-20.653 Y18.915 E40.33357
G1 X-21.267 Y17.662 E40.41725
G1 X-21.448 Y17.067 E40.45453
G1 X-21.638 Y15.884 E40.52640
G1 X-21.657 Y14.968 E40.58140
G1 X-21.658 Y-14.766 E42.36489
G1 X-21.636 Y-15.209 E42.39145
G1 X-21.514 Y-16.408 E42.46373
G1 X-21.072 Y-17.928 E42.55869
G1 X-20.786 Y-18.499 E42.59699
G1 X-19.640 Y-19.929 E42.70695
G1 X-18.829 Y-20.591 E42.76973
G1 X-17.085 Y-21.456 E42.88650
G1 X-16.540 Y-21.587 E42.92012
G1 X-15.569 Y-21.709 E42.97882
G1 X13.720 Y-21.715 E44.73563
G1 X15.695 Y-21.708 E44.85406 F1800.000
G1 X16.494 Y-21.623 E44.90227
G1 X16.929 Y-21.536 E44.92891
G1 X17.984 Y-21.181 E44.99567
G1 X18.369 Y-20.993 E45.02137
G1 X19.185 Y-20.479 E45.07922
G1 X19.527 Y-20.206 E45.10548
G1 X20.372 Y-19.311 E45.17928
G1 X20.653 Y-18.915 E45.20841
G1 X21.267 Y-17.662 E45.29209
G1 X21.448 Y-17.068 E45.32937
G1 X21.638 Y-15.884 E45.40124
G1 X21.658 Y-14.873 E45.46189
G1 X21.658 Y-0.300 E46.33603
G1 E39.83603 F6600.00000
G92 E0
G1 Z0.400 F12000.000
G1 X17.278 Y-0.532 F12000.000
G1 Z0.350 F12000.000
G1 E6.50000 F6600.00000
G1 X8.323 Y17.335 E7.84075 F1800.000
G1 X7.844 Y17.335 E7.87290
G1 X17.278 Y-1.488 E9.28540
G1 X17.278 Y-2.444 F12000.000
G1 X7.365 Y17.335 E10.76964 F1800.000
G1 X6.886 Y17.335 E10.80179
G1 X17.278 Y-3.400 E12.35779
G1 X17.278 Y-4.356 F12000.000
G1 X6.407 Y17.335 E13.98553 F1800.000
G1 X5.927 Y17.335 E14.01768
G1 X17.278 Y-5.312 E15.71717
G1 X17.278 Y-6.268 F12000.000
G1 X5.448 Y17.335 E17.48841 F1800.000
G1 X4.969 Y17.335 E17.52056
G1 X17.278 Y-7.224 E19.36355
G1 X17.278 Y-8.181 F12000.000
G1 X4.490 Y17.335 E21.27829 F1800.000
G1 X4.011 Y17.335 E21.31044
G1 X17.278 Y-9.137 E23.29692
G1 X17.278 Y-10.093 F12000.000
G1 X3.531 Y17.335 E25.35516 F1800.000
G1 X3.052 Y17.335 E25.38731
G1 X17.278 Y-11.049 E27.51729
G1 X17.278 Y-12.005 F12000.000
G1 X2.573 Y17.335 E29.71902 F1800.000
G1 X2.094 Y17.335 E29.75117
G1 X17.278 Y-12.961 E32.02465
G1 X17.278 Y-13.917 F12000.000
G1 X1.615 Y17.335 E34.36988 F1800.000
G1 X1.135 Y17.335 E34.40203
G1 X17.278 Y-14.873 E36.81901
G1 X17.259 Y-15.790 E36.88052
G1 X0.656 Y17.335 E39.36630
G1 X0.177 Y17.335 E39.39845
G1 X17.077 Y-16.385 E41.92883
G1 X16.797 Y-16.781 E41.96141
G1 X-0.302 Y17.335 E44.52154
G1 X-0.782 Y17.335 E44.55369
G1 X16.455 Y-17.054 E47.13430
G1 X16.069 Y-17.241 E47.16305
G1 X-1.261 Y17.335 E49.75772
G1 X-1.740 Y17.335 E49.78987
G1 X15.634 Y-17.329 E52.39109
G1 X15.158 Y-17.335 E52.42302
G1 X-2.219 Y17.335 E55.02473
G1 X-2.698 Y17.335 E55.05688
G1 X14.679 Y-17.335 E57.65860
G1 X14.199 Y-17.335 E57.69074
G1 X-3.178 Y17.335 E60.29246
G1 X-3.657 Y17.335 E60.32461
G1 X13.720 Y-17.335 E62.92632
G1 X13.241 Y-17.335 E62.95847
G1 X-4.136 Y17.335 E65.56019
G1 X-4.615 Y17.335 E65.59234
G1 X12.762 Y-17.335 E68.19405
G1 X12.283 Y-17.335 E68.22620
G1 X-5.094 Y17.335 E70.82792
G1 X-5.574 Y17.335 E70.86006
G1 X11.803 Y-17.335 E73.46178
G1 X11.324 Y-17.335 E73.49393
G1 X-6.053 Y17.335 E76.09564
G1 X-6.532 Y17.335 E76.12779
G1 X10.845 Y-17.335 E78.72951
G1 X10.366 Y-17.335 E78.76166
G1 X-7.011 Y17.335 E81.36337
G1 X-7.490 Y17.335 E81.39552
G1 X9.886 Y-17.335 E83.99724
G1 X9.407 Y-17.335 E84.02938
G1 X-7.970 Y17.335 E86.63110
G1 X-8.449 Y17.335 E86.66325
G1 X8.928 Y-17.335 E89.26496
G1 X8.449 Y-17.335 E89.29711
G1 X-8.928 Y17.335 E91.89883
G1 X-9.407 Y17.335 E91.93098
G1 X7.970 Y-17.335 E94.53269
G1 X7.490 Y-17.335 E94.56484
G1 X-9.887 Y17.335 E97.16655
G1 X-10.366 Y17.335 E97.19870
G1 X7.011 Y-17.335 E99.80042
G1 X6.532 Y-17.335 E99.83257
G1 X-10.845 Y17.335 E102.43428
G1 X-11.324 Y17.335 E102.46643
G1 X6.053 Y-17.335 E105.06815
G1 X5.574 Y-17.335 E105.10029
G1 X-11.803 Y17.335 E107.70201
G1 X-12.283 Y17.335 E107.73416
G1 X5.094 Y-17.335 E110.33587
G1 X4.615 Y-17.335 E110.36802
G1 X-12.762 Y17.335 E112.96974
G1 X-13.241 Y17.335 E113.00189
G1 X4.136 Y-17.335 E115.60360
G1 X3.657 Y-17.335 E115.63575
G1 X-13.720 Y17.335 E118.23747
G1 X-14.199 Y17.335 E118.26961
G1 X3.178 Y-17.335 E120.87133
G1 X2.698 Y-17.335 E120.90348
G1 X-14.679 Y17.335 E123.50519
G1 X-15.158 Y17.335 E123.53734
G1 X2.219 Y-17.335 E126.13906
G1 X1.740 Y-17.335 E126.17121
G1 X-15.634 Y17.329 E128.77243
G1 X-16.069 Y17.241 E128.80222
G1 X1.261 Y-17.335 E131.39689
G1 X0.781 Y-17.335 E131.42904
G1 X-16.455 Y17.054 E134.00966
G1 X-16.797 Y16.781 E134.03903
G1 X0.302 Y-17.335 E136.59916
G1 X-0.177 Y-17.335 E136.63131
G1 X-17.077 Y16.385 E139.16169
G1 X-17.259 Y15.790 E139.20339
G1 X-0.656 Y-17.335 E141.68916
G1 X-1.135 Y-17.335 E141.72130
G1 X-17.278 Y14.873 E144.13827
G1 X-17.278 Y13.917 F12000.000
G1 X-1.615 Y-17.335 E146.48350 F1800.000
G1 X-2.094 Y-17.335 E146.51565
G1 X-17.278 Y12.961 E148.78912
G1 X-17.278 Y12.005 F12000.000
G1 X-2.573 Y-17.335 E150.99085 F1800.000
G1 X-3.052 Y-17.335 E151.02299
G1 X-17.278 Y11.049 E153.15297
G1 X-17.278 Y10.093 F12000.000
G1 X-3.531 Y-17.335 E155.21120 F1800.000
G1 X-4.011 Y-17.335 E155.24335
G1 X-17.278 Y9.137 E157.22983
G1 X-17.278 Y8.180 F12000.000
G1 X-4.490 Y-17.335 E159.14456 F1800.000
G1 X-4.969 Y-17.335 E159.17671
G1 X-17.278 Y7.224 E161.01969
G1 X-17.278 Y6.268 F12000.000
G1 X-5.448 Y-17.335 E162.79092 F1800.000
G1 X-5.927 Y-17.335 E162.82307
G1 X-17.278 Y5.312 E164.52256
G1 X-17.278 Y4.356 F12000.000
G1 X-6.407 Y-17.335 E166.15030 F1800.000
G1 X-6.886 Y-17.335 E166.18244
G1 X-17.278 Y3.400 E167.73843
G1 X-17.278 Y2.444 F12000.000
G1 X-7.365 Y-17.335 E169.22267 F1800.000
G1 X-7.844 Y-17.335 E169.25482
G1 X-17.278 Y1.488 E170.66731
G1 X-17.278 Y0.532 F12000.000
G1 X-8.324 Y-17.335 E172.00806 F1800.000
G1 X-8.803 Y-17.335 E172.04021
G1 X-17.278 Y-0.425 E173.30920
G1 X-17.278 Y-1.381 F12000.000
G1 X-9.282 Y-17.335 E174.50645 F1800.000
G1 X-9.761 Y-17.335 E174.53859
G1 X-17.278 Y-2.337 E175.66409
G1 X-17.278 Y-3.293 F12000.000
G1 X-10.240 Y-17.335 E176.71784 F1800.000
G1 X-10.720 Y-17.335 E176.74999
G1 X-17.278 Y-4.249 E177.73199
G1 X-17.278 Y-5.205 F12000.000
G1 X-11.199 Y-17.335 E178.64224 F1800.000
G1 X-11.678 Y-17.335 E178.67439
G1 X-17.278 Y-6.161 E179.51289
G1 X-17.278 Y-7.117 F12000.000
G1 X-12.157 Y-17.335 E180.27965 F1800.000
G1 X-12.636 Y-17.335 E180.31180
G1 X-17.278 Y-8.074 E181.00680
G1 X-17.278 Y-9.030 F12000.000
G1 X-13.116 Y-17.335 E181.63006 F1800.000
G1 X-13.595 Y-17.335 E181.66221
G1 X-17.278 Y-9.986 E182.21372
G1 X-17.278 Y-10.942 F12000.000
G1 X-14.074 Y-17.335 E182.69348 F1800.000
G1 X-14.553 Y-17.335 E182.72563
G1 X-17.278 Y-11.898 E183.13364
G1 X-17.278 Y-12.854 F12000.000
G1 X-15.032 Y-17.335 E183.46991 F1800.000
G1 X-15.515 Y-17.329 E183.50226
G1 X-17.278 Y-13.810 E183.76632
G1 X-17.278 Y-14.766 F12000.000
G1 X-16.060 Y-17.198 E183.94879 F1800.000
G1 X-16.871 Y-16.536 F12000.000
G1 X-17.157 Y-15.965 E183.99163 F1800.000
G1 E177.49163 F6600.00000
G92 E0
G1 Z0.400 F12000.000
G1 X17.278 Y0.425 F12000.000
G1 Z0.350 F12000.000
G1 E6.50000 F6600.00000
G1 X8.803 Y17.335 E7.76900 F1800.000
G1 X9.282 Y17.335 E7.80115
G1 X17.278 Y1.381 E8.99840
G1 X17.278 Y2.337 F12000.000
G1 X9.761 Y17.335 E10.12391 F1800.000
G1 X10.240 Y17.335 E10.15606
G1 X17.278 Y3.293 E11.20981
G1 X17.278 Y4.249 F12000.000
G1 X10.720 Y17.335 E12.19182 F1800.000
G1 X11.199 Y17.335 E12.22397
G1 X17.278 Y5.205 E13.13423
G1 X17.278 Y6.161 F12000.000
G1 X11.678 Y17.335 E13.97274 F1800.000
G1 X12.157 Y17.335 E14.00488
G1 X17.278 Y7.117 E14.77165
G1 X17.278 Y8.073 F12000.000
G1 X12.636 Y17.335 E15.46666 F1800.000
G1 X13.116 Y17.335 E15.49881
G1 X17.278 Y9.030 E16.12207
G1 X17.278 Y9.986 F12000.000
G1 X13.595 Y17.335 E16.67359 F1800.000
G1 X14.074 Y17.335 E16.70574
G1 X17.278 Y10.942 E17.18550
G1 X17.278 Y11.898 F12000.000
G1 X14.553 Y17.335 E17.59352 F1800.000
G1 X15.032 Y17.335 E17.62567
G1 X17.278 Y12.854 E17.96194
G1 X17.278 Y13.810 F12000.000
G1 X15.515 Y17.329 E18.22602 F1800.000
G1 X16.060 Y17.198 E18.26362
G1 X17.278 Y14.766 E18.44610
G1 X17.157 Y15.965 F12000.000
G1 X16.871 Y16.536 E18.48898 F1800.000
M104 S220 ; set temperature
M140 S80 ; wait for bed temperature to be reached
G1 Z1.050 F12000.000
G1 E11.98898 F6600.00000
G92 E0
G1 Z1.100 F12000.000
G1 X14.727 Y14.727 F12000.000
G1 Z1.050 F12000.000
G1 E6.50000 F6600.00000
G1 X8.438 Y14.727 E7.05711 F3600.000
G1 X8.438 Y13.025 E7.20785
G1 X7.526 Y13.012 E7.28857
G1 X7.511 Y14.727 E7.44053
G1 X-7.514 Y14.727 E8.77135
G1 X-7.514 Y13.025 E8.92209
G1 X-8.425 Y13.012 E9.00281
G1 X-8.440 Y14.727 E9.15477
G1 X-14.727 Y14.727 E9.71164
G1 X-14.727 Y8.438 E10.26875
G1 X-13.025 Y8.438 E10.41949
G1 X-13.012 Y7.526 E10.50021
G1 X-14.727 Y7.511 E10.65217
G1 X-14.727 Y-7.514 E11.98299
G1 X-13.025 Y-7.514 E12.13373
G1 X-13.012 Y-8.425 E12.21445
G1 X-14.727 Y-8.440 E12.36641
G1 X-14.727 Y-14.727 E12.92328 F3600.000
G1 X-8.438 Y-14.727 E13.48039
G1 X-8.438 Y-13.025 E13.63113
G1 X-7.526 Y-13.012 E13.71185
G1 X-7.511 Y-14.727 E13.86381
G1 X7.514 Y-14.727 E15.19463
G1 X7.514 Y-13.025 E15.34537
G1 X8.425 Y-13.012 E15.42609
G1 X8.440 Y-14.727 E15.57804
G1 X14.727 Y-14.727 E16.13492
G1 X14.727 Y-8.438 E16.69203
G1 X13.025 Y-8.438 E16.84277
G1 X13.012 Y-7.526 E16.92349
G1 X14.727 Y-7.511 E17.07545
G1 X14.727 Y7.514 E18.40627
G1 X13.025 Y7.514 E18.55701
G1 X13.012 Y8.425 E18.63773
G1 X14.727 Y8.440 E18.78969
G1 X14.727 Y14.652 E19.33992
G1 E12.83992 F6600.00000
G92 E0
G1 Z1.100 F12000.000
G1 X-9.343 Y-15.651 F12000.000
G1 Z1.050 F12000.000
G1 E6.50000 F6600.00000
G1 X15.425 Y-15.651 E8.69387 F3600.000
G1 X15.496 Y-15.642 E8.70023 F3600.000
G1 X15.588 Y-15.588 E8.70964
G1 X15.642 Y-15.496 E8.71906
G1 X15.651 Y-15.424 E8.72557
G1 X15.651 Y15.424 E11.45791
G1 X15.642 Y15.496 E11.46442
G1 X15.588 Y15.588 E11.47384
G1 X15.496 Y15.642 E11.48326
G1 X15.424 Y15.651 E11.48976
G1 X-15.496 Y15.642 E14.22856
G1 X-15.546 Y15.621 E14.23331
G1 X-15.621 Y15.546 E14.24273
G1 X-15.651 Y15.424 E14.25389
G1 X-15.651 Y-15.420 E16.98595
G1 X-15.638 Y-15.504 E16.99347
G1 X-15.588 Y-15.588 E17.00214
G1 X-15.546 Y-15.621 E17.00689
G1 X-15.424 Y-15.651 E17.01805
G1 X-9.418 Y-15.651 E17.55003
G1 E11.05003 F6600.00000
G92 E0
G1 Z1.100 F12000.000
G1 X-3.115 Y-4.755 F12000.000
G1 Z1.050 F12000.000
